X:69
M:C
L:1/8
Q:"Allegretto  "1/4=130
K:C
!p!([GE][cE])[cE][cE] [BFG,]>c[dB]f|\
([ec]c)([cE][GE]) ([E2C2]G2)|\
([AF]>BcA) [BFG,]>c[dB]f|\
([ec]c)([cE][GE]) ([E2C2]G2)||
([cE][AF][GE][EC]) ([FD]>[EC]) [D2B,2]|\
([AF]c[GE]E) (F>E) D2|\
(E<C) (F>E) (E2 G)z||

